svgs/groups/eye-crossed-out.svg

<svg xmlns="http://www.w3.org/2000/svg" viewBox="0 0 16 16" aria-labelledby="title" role="img" class="symbol symbol-eye-crossed-out"><title id="title">eye-crossed-out icon</title><g data-name="Layer 1"><path class="cls-1" d="M15.82 7.86a9.67 9.67 0 0 0-1.44-2.35l-1.24 1.24A7.86 7.86 0 0 1 14 8.19c-.51 1-2.33 4-6 4a3 3 0 0 1-.43 0l-1.43 1.56a8.1 8.1 0 0 0 2 .24c5.47 0 7.63-5.26 7.72-5.48a.91.91 0 0 0-.04-.65z" role="presentation"/><path class="cls-1" d="M11.06 8.83l-2.42 2.42a3.16 3.16 0 0 0 2.42-2.42zm3.68-6.33a.88.88 0 0 0-1.24-1.24l-1.93 1.93a7.57 7.57 0 0 0-3.47-.81C2.65 2.38.29 7.61.19 7.83a.88.88 0 0 0 0 .71A10.76 10.76 0 0 0 2.79 12l-1.55 1.53a.88.88 0 0 0 1.24 1.24zm-8.1 5.63a1.37 1.37 0 0 1 1.31-1.31zM2 8.19c.54-1.06 2.48-4.06 6.1-4.06a6 6 0 0 1 2.14.39l-.87.87A3.07 3.07 0 0 0 8 5.06a3.12 3.12 0 0 0-2.8 4.5L4 10.72a9 9 0 0 1-2-2.53z" role="presentation"/></g></svg>

<svg xmlns="http://www.w3.org/2000/svg" viewBox="0 0 16 16"><defs><style>.cls-1{fill:#231f20;}</style></defs><title>eye-crossed-out</title><g id="Layer_1" data-name="Layer 1"><path class="cls-1" d="M15.82,7.86a9.67,9.67,0,0,0-1.44-2.35L13.14,6.75A7.86,7.86,0,0,1,14,8.19c-.51,1-2.33,4-6,4a3,3,0,0,1-.43,0L6.14,13.75a8.1,8.1,0,0,0,2,.24c5.47,0,7.63-5.26,7.72-5.48A.91.91,0,0,0,15.82,7.86Z"/><path class="cls-1" d="M11.06,8.83,8.64,11.25A3.16,3.16,0,0,0,11.06,8.83Z"/><path class="cls-1" d="M14.74,2.5A.88.88,0,0,0,13.5,1.26L11.57,3.19A7.57,7.57,0,0,0,8.1,2.38C2.65,2.38.29,7.61.19,7.83a.88.88,0,0,0,0,.71A10.76,10.76,0,0,0,2.79,12L1.24,13.53a.88.88,0,0,0,1.24,1.24ZM6.64,8.13A1.37,1.37,0,0,1,7.95,6.82ZM2,8.19C2.54,7.13,4.48,4.13,8.1,4.13a6,6,0,0,1,2.14.39l-.87.87A3.07,3.07,0,0,0,8,5.06a3.12,3.12,0,0,0-2.8,4.5L4,10.72A9,9,0,0,1,2,8.19Z"/></g></svg>
